frontend/src/assets/icons/message-text-circle-02.svg

<svg width="24" height="24" viewBox="0 0 24 24" fill="none" xmlns="http://www.w3.org/2000/svg">
<g id="message-text-circle-02">
<path id="Icon" d="M8 9.5H12M8 13H15M12 21C16.9706 21 21 16.9706 21 12C21 7.02944 16.9706 3 12 3C7.02944 3 3 7.02944 3 12C3 13.1971 3.23374 14.3397 3.65806 15.3845C3.73927 15.5845 3.77988 15.6845 3.798 15.7653C3.81572 15.8443 3.8222 15.9028 3.82221 15.9839C3.82222 16.0667 3.80718 16.1569 3.77711 16.3374L3.18413 19.8952C3.12203 20.2678 3.09098 20.4541 3.14876 20.5888C3.19933 20.7067 3.29328 20.8007 3.41118 20.8512C3.54589 20.909 3.73218 20.878 4.10476 20.8159L7.66265 20.2229C7.84309 20.1928 7.9333 20.1778 8.01613 20.1778C8.09715 20.1778 8.15566 20.1843 8.23472 20.202C8.31554 20.2201 8.41552 20.2607 8.61549 20.3419C9.6603 20.7663 10.8029 21 12 21Z" stroke="black" stroke-width="2" stroke-linecap="round" stroke-linejoin="round"/>
</g>
</svg>

<svg xmlns="http://www.w3.org/2000/svg" width="24" height="24" fill="none" viewBox="0 0 24 24">
  <path stroke="#000" stroke-linecap="round" stroke-linejoin="round" stroke-width="2" d="M8 9.5h4M8 13h7m-3 8a9 9 0 1 0-8.342-5.616c.081.2.122.3.14.381a.907.907 0 0 1 .024.219c0 .083-.015.173-.045.353l-.593 3.558c-.062.373-.093.56-.035.694a.5.5 0 0 0 .262.262c.135.058.321.027.694-.035l3.558-.593c.18-.03.27-.045.353-.045.081 0 .14.006.219.024.08.018.18.059.38.14A8.973 8.973 0 0 0 12 21Z"/>
</svg>
